hero/solid/chat-bubble-oval-left-ellipsis.svg

<svg width="24" height="24" viewBox="0 0 24 24" fill="none" xmlns="http://www.w3.org/2000/svg">
<path fill-rule="evenodd" clip-rule="evenodd" d="M4.80365 21.6442C4.9793 21.6757 5.15732 21.7003 5.33691 21.7178C5.55516 21.7391 5.77647 21.75 6 21.75C7.3153 21.75 8.54447 21.3731 9.58317 20.7213C10.3569 20.9034 11.1668 21 12 21C17.322 21 21.75 17.0307 21.75 12C21.75 6.96934 17.322 3 12 3C6.67799 3 2.25 6.96934 2.25 12C2.25 14.4086 3.2746 16.5871 4.92371 18.1923C5.15571 18.4182 5.20107 18.6196 5.17822 18.7349C5.05254 19.3685 4.76687 19.9451 4.36357 20.4211C4.19016 20.6258 4.13927 20.9075 4.23008 21.1599C4.3209 21.4123 4.5396 21.597 4.80365 21.6442ZM8.25 10.875C7.62868 10.875 7.125 11.3787 7.125 12C7.125 12.6213 7.62868 13.125 8.25 13.125C8.87132 13.125 9.375 12.6213 9.375 12C9.375 11.3787 8.87132 10.875 8.25 10.875ZM10.875 12C10.875 11.3787 11.3787 10.875 12 10.875C12.6213 10.875 13.125 11.3787 13.125 12C13.125 12.6213 12.6213 13.125 12 13.125C11.3787 13.125 10.875 12.6213 10.875 12ZM15.75 10.875C15.1287 10.875 14.625 11.3787 14.625 12C14.625 12.6213 15.1287 13.125 15.75 13.125C16.3713 13.125 16.875 12.6213 16.875 12C16.875 11.3787 16.3713 10.875 15.75 10.875Z" fill="#0F172A"/>
</svg>

<svg viewBox="0 0 24 24" xmlns="http://www.w3.org/2000/svg"><path fill-rule="evenodd" d="M4.8 21.64v0c.39.07.79.1 1.19.1v0c1.26 0 2.5-.36 3.58-1.029 .77.18 1.58.27 2.417.27 5.32 0 9.75-3.97 9.75-9 0-5.03-4.43-9-9.75-9 -5.33 0-9.75 3.97-9.75 9 0 2.4 1.025 4.587 2.67 6.192 .23.22.27.42.25.54v0c-.13.62-.41 1.2-.82 1.686h0c-.27.31-.23.78.08 1.05 .1.08.22.14.35.16Zm3.44-10.769v0c-.63 0-1.125.5-1.125 1.125 0 .62.5 1.125 1.125 1.125v0c.62 0 1.125-.51 1.125-1.125 0-.63-.51-1.125-1.125-1.125Zm2.62 1.12v0c0-.63.5-1.125 1.125-1.125 .62 0 1.125.5 1.125 1.125v0c0 .62-.51 1.125-1.125 1.125 -.63 0-1.125-.51-1.125-1.125Zm4.875-1.125v0c-.63 0-1.125.5-1.125 1.125 0 .62.5 1.125 1.125 1.125v0c.62 0 1.12-.51 1.12-1.125 0-.63-.51-1.125-1.13-1.125Z"/></svg>
